src/images/icons/icon-about-5.svg

<svg width="51" height="51" viewBox="0 0 51 51" fill="none" xmlns="http://www.w3.org/2000/svg">
<path d="M25.1534 50.3067C39.0452 50.3067 50.3067 39.0452 50.3067 25.1534C50.3067 11.2615 39.0452 0 25.1534 0C11.2615 0 0 11.2615 0 25.1534C0 39.0452 11.2615 50.3067 25.1534 50.3067Z" fill="white"/>
<path fill-rule="evenodd" clip-rule="evenodd" d="M46.6258 25.1534C46.6258 37.1166 37.1166 46.6258 25.1534 46.6258C13.1902 46.6258 3.37427 37.1166 3.37427 25.1534C3.37427 13.1902 13.1902 3.37427 25.1534 3.37427C37.1166 3.37427 46.6258 13.1902 46.6258 25.1534Z" fill="#B3B3B3"/>
<path fill-rule="evenodd" clip-rule="evenodd" d="M32.5153 17.7914H25.4601L24.5398 21.4723C24.8466 21.4723 25.1533 21.4723 25.4601 21.4723C27.3006 21.4723 29.4478 22.0858 30.6748 23.6196C31.9018 24.5398 32.822 26.3803 32.822 29.4478C32.822 31.9018 32.2085 33.7423 30.6748 35.276C28.8343 37.1165 26.6871 37.4233 24.2331 37.4233C23.0061 37.4233 21.4723 37.4233 19.9386 36.503C19.6319 36.1963 18.4049 35.5828 17.4846 34.049L19.9386 31.9018C19.9386 31.9018 20.5521 33.1288 21.7791 33.7423C22.3926 34.3558 23.6196 34.6625 24.5398 34.6625C26.3803 34.6625 27.6073 33.7423 27.9141 33.1288C28.8343 32.5153 29.4478 31.2883 29.4478 29.4478C29.4478 27.6073 28.8343 26.3803 28.2208 25.7668C26.9938 24.8466 25.4601 24.5398 24.5398 24.5398C23.3128 24.5398 22.6993 24.5398 21.7791 25.1533C21.1656 25.1533 20.5521 25.4601 19.9386 26.0736L23.0061 14.7239H32.5153V17.7914Z" fill="white"/>
</svg>

<svg xmlns="http://www.w3.org/2000/svg" width="51" height="51" fill="none" viewBox="0 0 51 51">
	<path fill="#fff" d="M25.153 50.307c13.892 0 25.154-11.262 25.154-25.154C50.307 11.262 39.045 0 25.153 0 11.262 0 0 11.261 0 25.153s11.261 25.154 25.153 25.154z"/>
	<path fill="#B3B3B3" fill-rule="evenodd" d="M46.626 25.153c0 11.964-9.51 21.473-21.473 21.473S3.374 37.116 3.374 25.153 13.19 3.374 25.154 3.374c11.963 0 21.472 9.816 21.472 21.78z" clip-rule="evenodd"/>
	<path fill="#fff" fill-rule="evenodd" d="M32.515 17.791H25.46l-.92 3.681h.92c1.84 0 3.988.614 5.215 2.148 1.227.92 2.147 2.76 2.147 5.828 0 2.454-.614 4.294-2.147 5.828-1.84 1.84-3.988 2.147-6.442 2.147-1.227 0-2.76 0-4.294-.92-.307-.307-1.534-.92-2.454-2.454l2.454-2.147s.613 1.227 1.84 1.84c.614.614 1.84.92 2.76.92 1.841 0 3.068-.92 3.375-1.533.92-.614 1.534-1.84 1.534-3.681 0-1.84-.614-3.068-1.227-3.681-1.227-.92-2.76-1.227-3.681-1.227-1.227 0-1.84 0-2.76.613-.614 0-1.228.307-1.841.92l3.067-11.35h9.51v3.068z" clip-rule="evenodd"/>
</svg>
